X: 1422
T: N`itti Bana İntikamın
C: Şivelioğlu Yorgaki
O: Turkey
F: http://compmusic.upf.edu/node/140
N: hicaz-humayun--sarki--agiraksak--nitti_bana--sivelioglu_yorgaki
N: makam= hicaz-humayun
N: form= sarki
N: usul= agiraksak = 9/4
M: 9/4
L: 1/16
K: C _7/8B ^c  
Q: 1/4=66
%%MIDI tuningsystem comma53
c3B A4 {a}g2f2 e2d2 c2d2 e2c2 d6c2 d2{e}c2  | \
w:  ARANAĞME  | 
d4 e2^3/4f2 g2a2 a3g g3f f3e g2fe e6z2  | 
w:   | 
z2a4g2 f4 e4 z2g2 f2e2 f3e d6z2  | \
w:   | 
e2f2 e2d2 c3B A2d2 c3B cBBA A6ef eddc  | 
w:   | 
d3/2c/de dcBc d2d4e2 d2e2 d2c2 d3c =B4 B2e2  | \
w:  *  *  *  *  *  *  *  *  *  N'it ti  ba *  *  *  na   | 
{e}d2c2 =B2A2 B2c2 d2e2 {g}f3e d2e2 c4 d6z2  | 
w:  *  in *  *  *  ti *  *  *  *  ka *  *  *  mın   | 
c4 d4 d2e2 d2c2 d2e2 d2c2 z2g2 ^2/4f2e2 e2=f2  | \
w:  ey  *  *  *  *  *  *  *  *  *  ey  *  *  fe  | 
fed6 d6cB cde2 d2c2 dcBA B4 A2c2  | 
w:  lek   *  *  *  SAZ  | 
cB{c}BA B2A2 z2g4g2 g2^2/4f2 f2e2 e2=f2 e2f2 e2g2  | \
w:  *  *  *  *  *  *  *  Ah  bu  has *  *  *  ret   | 
fedc B2A2 z2A4B2 c2de d2c2 {c}B3A G6z2  | 
w:  câ *  *  *  *  *  câ nı ma  *  *  *  *  *  kâr   | 
g3f f3e e3d d3c c3B B3A d8 c2B2  | \
w:  et *  *  *  *  *  *  *  *  *  *  *  *  ti   | 
c3B A4 z4 e2f2 e3d c2e2 d6c2 e2ed  | 
w:  pek   *  *  SAZ  | 
cB{c}BA B2A2 z2g4g2 g2^2/4f2 f2e2 e2=f2 e2f2 e2g2  | \
w:  *  *  *  *  *  *  *  Ah  bu  has *  *  *  ret   | 
fedc B2A2 z2A4B2 c2de d2c2 {c}B3A G6z2  | 
w:  câ *  *  *  *  *  câ nı ma  *  *  *  *  *  kâr   | 
g3f f3e e3d d3c c3B B3A d8 c2B2  | \
w:  et *  *  *  *  *  *  *  *  *  *  *  *  ti   | 
c3B A4 z4 e2f2 e3d c2d2 e6d2 g2^2/4fe  | 
w:  pek   *  *  SAZ  | 
e2ef edcd e2ed c2d2 e2f2 e2d2 e2g2 f2e2 d4  | 
w:  *  *  *  *  *  *  *  *  Kal *  *  ma dı  *  *  *  far  | 
dcB4A2 {c}B3A G4 A2c2 B2A2 AGG^3/4F G6z2  | \
w:  kın  *  *  *  *  fe *  *  lek *  *  *  ten   | 
c4 d4 d2e2 d2c2 d2e2 d2c2 z2g2 ^2/4f2e2 e2=f2  | 
w:  ey  *  *  *  *  *  *  *  *  *  ey  *  *  me  | 
fed6 d6cB cde2 d2c2 dcBA B4 A2c2  | \
w:  lek *  *  *  SAZ  | 
cB{c}BA B2A2 z2g4g2 g2^2/4f2 f2e2 e2=f2 e2f2 e2g2  | 
w:  *  *  *  *  *  *  *  Ah  bu  has *  *  *  ret   | 
fedc B2A2 z2A4B2 c2de d2c2 {c}B3A G6z2  | \
w:  câ *  *  *  *  *  câ nı ma  *  *  *  *  *  kâr   | 
g3f f3e e3d d3c c3B B3A d8 c2B2  | 
w:  et *  *  *  *  *  *  *  *  *  *  *  *  ti   | 
c3B A4 z4 e2f2 e3d c2e2 d6c2 e2ed  | \
w:  pek   *  *  SAZ  | 
cB{c}BA B2A2 z2g4g2 g2^2/4f2 f2e2 e2=f2 e2f2 e2g2  | 
w:  *  *  *  *  *  *  *  Ah  bu  has *  *  *  ret   | 
fedc B2A2 z2A4B2 c2de d2c2 {c}B3A G6z2  | \
w:  câ *  *  *  *  *  câ nı ma  *  *  *  *  *  kâr   | 
g3f f3e e3d d3c c3B B3A d8 c2B2  | 
w:  et *  *  *  *  *  *  *  *  *  *  *  *  ti   | 
c3B A4 z4 |
w:  pek    | 


